app/assets/images/heroicon/outline/hand-thumb-up.svg

<svg width="24" height="24" viewBox="0 0 24 24" fill="none" xmlns="http://www.w3.org/2000/svg">
<path d="M5.38257 12.25C6.18892 12.25 6.91648 11.8042 7.4141 11.1697C8.18726 10.1838 9.16169 9.3634 10.2755 8.77021C10.9977 8.38563 11.6243 7.81428 11.9281 7.05464C12.1408 6.5231 12.25 5.95587 12.25 5.38338V4.75C12.25 4.33579 12.5858 4 13 4C14.2426 4 15.25 5.00736 15.25 6.25C15.25 7.40163 14.9904 8.49263 14.5266 9.46771C14.261 10.026 14.6336 10.75 15.2519 10.75M15.2519 10.75H18.3777C19.4044 10.75 20.3233 11.444 20.432 12.4649C20.4769 12.8871 20.5 13.3158 20.5 13.75C20.5 16.5976 19.5081 19.2136 17.851 21.2712C17.4634 21.7525 16.8642 22 16.2462 22H12.2302C11.7466 22 11.2661 21.922 10.8072 21.7691L7.69278 20.7309C7.23393 20.578 6.75342 20.5 6.26975 20.5H4.65421M15.2519 10.75H13M4.65421 20.5C4.73702 20.7046 4.82713 20.9054 4.92423 21.1022C5.12137 21.5017 4.8462 22 4.40067 22H3.49289C2.60418 22 1.77991 21.482 1.52056 20.632C1.18208 19.5226 1 18.3451 1 17.125C1 15.5725 1.29481 14.0889 1.83149 12.7271C2.13655 11.953 2.91733 11.5 3.74936 11.5H4.80212C5.27404 11.5 5.5473 12.0559 5.3023 12.4593C4.47588 13.8198 4 15.4168 4 17.125C4 18.3185 4.23232 19.4578 4.65421 20.5Z" stroke="#0F172A" stroke-width="1.5" stroke-linecap="round" stroke-linejoin="round"/>
</svg>

<svg xmlns="http://www.w3.org/2000/svg" fill="none" viewBox="0 0 24 24" stroke-width="1.5" stroke="currentColor" aria-hidden="true">
  <path stroke-linecap="round" stroke-linejoin="round" d="M5.383 12.25c.806 0 1.533-.446 2.031-1.08a9.04 9.04 0 012.861-2.4c.723-.384 1.35-.956 1.653-1.715a4.498 4.498 0 00.322-1.672V4.75A.75.75 0 0113 4a2.25 2.25 0 012.25 2.25c0 1.152-.26 2.243-.723 3.218-.266.558.107 1.282.725 1.282m0 0h3.126c1.026 0 1.945.694 2.054 1.715.045.422.068.85.068 1.285a11.95 11.95 0 01-2.649 7.521c-.388.482-.987.729-1.605.729H12.23c-.483 0-.964-.078-1.423-.23l-3.114-1.04a4.501 4.501 0 00-1.423-.23H4.654m10.598-9.75H13M4.654 20.5c.083.205.173.405.27.602.197.4-.078.898-.523.898h-.908c-.889 0-1.713-.518-1.972-1.368A12 12 0 011 17.125c0-1.553.295-3.036.831-4.398.306-.774 1.086-1.227 1.918-1.227h1.053c.472 0 .745.556.5.96A8.958 8.958 0 004 17.124c0 1.194.232 2.333.654 3.375z"/>
</svg>
